X:719
M:C|
L:1/8
K:B_
g|fB B/B/B d2 cB|GBFD ECCg|fB B/B/B d2 cB|GBFE DB,B,g|
fB B/B/B d2 cB|GBFD ECCE|FDFB GEGe|dfce dB~B||
g|fBdf Bfdg|fBdB Accg|fBdf bfdf|ecAf dBBg|fBdf Bfdg|fBdB AccB|

